!!!OTL: Venus, du und dein Kind
!!!ARE: Europa, Mitteleuropa, Deutschland
!!!SCT: A0219A
!!!YEM: Copyright 1995, estate of Helmut Schaffrath.
**kern
*ICvox
*Ivox
*M4/4
*k[b-]
*d:
{4fn
=1
4fn
4a
4a
4g
=2
2a
4r}
{4a
=3
4.a
8g
4fn
4fn
=4
2e
4r}
{4e
=5
4fn
4g
4a
4b-
=6
2g
4a}
{4e
=7
4fn
4g
4a
4b-
=8
2g
4a}
{4a
=9
4.ccn
8b-
4a
4a
=10
2g
4g}
{4a
=11
4.a
8g
4fn
4g
=12
2e
4d}
==
!!!AGN: Romanze, Ballade, Lied
!! Jac. Regnart, Kurtzweilige teutsche Liedlein. Wien 1574 No. 8.
!!    Nur der volksthuemlich gewordenen Melodie halber wurde dies
!!    Kunstlied hier aufgenommen.
!!!ONB: ESAC (Essen Associative Code) Database: ALTDEU
!!!AMT: simple quadruple
!!!AIN: vox
!!!EED: Helmut Schaffrath
!!!EEV: 1.0
*-
